static/images/social/facebook.svg

<svg height="39.999" viewBox="0 0 39.999 39.999" width="39.999" xmlns="http://www.w3.org/2000/svg"><path d="m20 40a20 20 0 0 1 -7.785-38.427 20 20 0 0 1 15.57 36.855 19.875 19.875 0 0 1 -7.785 1.572zm-4-23.91v3.067h1.786v9.81h3.572v-9.812h2.68l.533-3.066h-3.212v-2.222c0-.708.452-1.467 1.125-1.467h1.824v-3.066h-2.235v.014a4.31 4.31 0 0 0 -3.428 1.392 4.683 4.683 0 0 0 -.85 2.888v2.462z" fill="#131214" transform="translate(-.001 -.001)"/></svg>

<svg xmlns="http://www.w3.org/2000/svg" width="39.999" height="39.999" viewBox="0 0 39.999 39.999"><defs><style>.a{fill:#131214;}</style></defs><g transform="translate(-1060.001 -3874.001)"><path class="a" d="M20,40A20,20,0,0,1,12.215,1.573,20,20,0,0,1,27.785,38.428,19.875,19.875,0,0,1,20,40Zm-4-23.91v3.067h1.786v9.81h3.572V19.155h2.68l.533-3.066H21.359V13.867c0-.708.452-1.467,1.125-1.467h1.824V9.334H22.073v.014a4.31,4.31,0,0,0-3.428,1.392,4.683,4.683,0,0,0-.85,2.888v2.462Z" transform="translate(1060 3874)"/></g></svg>
